assets/icons/heart-fill-24.svg

<svg width="24" height="24" viewBox="0 0 24 24" fill="none" xmlns="http://www.w3.org/2000/svg">
<path fill-rule="evenodd" clip-rule="evenodd" d="M3.46447 4.665C5.41709 2.445 8.58291 2.445 10.5355 4.665L11.275 5.5537C11.6692 6.02753 12.3308 6.02753 12.725 5.5537L13.4645 4.665C15.4171 2.445 18.5829 2.445 20.5355 4.665C22.4882 6.88499 22.4882 10.4843 20.5355 12.7043L14.1169 20.0019C12.9463 21.3327 11.0537 21.3327 9.88311 20.0019L3.46447 12.7043C1.51184 10.4843 1.51184 6.88499 3.46447 4.665Z" fill="#F2F2F2"/>
</svg>

<svg xmlns="http://www.w3.org/2000/svg" width="24" height="24" viewBox="0 0 24 24"><path fill-rule="evenodd" d="M3.464 4.665c1.953-2.22 5.119-2.22 7.072 0l.739.889c.394.474 1.056.474 1.45 0l.74-.889c1.952-2.22 5.118-2.22 7.07 0 1.953 2.22 1.953 5.82 0 8.04l-6.418 7.297c-1.17 1.33-3.063 1.33-4.234 0l-6.419-7.298c-1.952-2.22-1.952-5.819 0-8.039z"/></svg>
